src/assets/duotone/More.svg

<svg width="24" height="24" viewBox="0 0 24 24"  xmlns="http://www.w3.org/2000/svg">
<path opacity="0.4" d="M16.19 2H7.81C4.17 2 2 4.17 2 7.81V16.18C2 19.83 4.17 22 7.81 22H16.18C19.82 22 21.99 19.83 21.99 16.19V7.81C22 4.17 19.83 2 16.19 2Z" />
<path d="M11.9999 10.6904C11.2799 10.6904 10.6899 11.2804 10.6899 12.0004C10.6899 12.7204 11.2799 13.3104 11.9999 13.3104C12.7199 13.3104 13.3099 12.7204 13.3099 12.0004C13.3099 11.2804 12.7199 10.6904 11.9999 10.6904Z" />
<path d="M6.99994 10.6904C6.27994 10.6904 5.68994 11.2804 5.68994 12.0004C5.68994 12.7204 6.27994 13.3104 6.99994 13.3104C7.71994 13.3104 8.30994 12.7204 8.30994 12.0004C8.30994 11.2804 7.71994 10.6904 6.99994 10.6904Z" />
<path d="M16.9999 10.6904C16.2799 10.6904 15.6899 11.2804 15.6899 12.0004C15.6899 12.7204 16.2799 13.3104 16.9999 13.3104C17.7199 13.3104 18.3099 12.7204 18.3099 12.0004C18.3099 11.2804 17.7199 10.6904 16.9999 10.6904Z" />
</svg>

<?xml version="1.0" encoding="UTF-8"?>
<svg width="24" height="24" viewBox="0 0 24 24" xmlns="http://www.w3.org/2000/svg">
 <path d="M16.19 2H7.81C4.17 2 2 4.17 2 7.81V16.18C2 19.83 4.17 22 7.81 22H16.18C19.82 22 21.99 19.83 21.99 16.19V7.81C22 4.17 19.83 2 16.19 2Z" opacity=".4"/>
 <path d="m12 10.69c-0.72 0-1.31 0.59-1.31 1.31s0.59 1.31 1.31 1.31 1.31-0.59 1.31-1.31-0.59-1.31-1.31-1.31z"/>
 <path d="m6.9999 10.69c-0.72 0-1.31 0.59-1.31 1.31s0.59 1.31 1.31 1.31 1.31-0.59 1.31-1.31-0.59-1.31-1.31-1.31z"/>
 <path d="m17 10.69c-0.72 0-1.31 0.59-1.31 1.31s0.59 1.31 1.31 1.31 1.31-0.59 1.31-1.31-0.59-1.31-1.31-1.31z"/>
</svg>
